X: 52
T: Springfield Lass
C: Mark Simos
O: Cambridge, Massachusetts
%R: waltz
Z: Collected and edited 2014 by John Chambers <jc:trillian.mit.edu>
B: GEMS The Best of the Country Dance and Song Society Diamond Jubilee Music, Dance and Song Contest 1993 p.77
M: 3/4
L: 1/8
K: G
% - - - - - - - - - - - - - - - - - - - - - - - - -
D2 |\
"G"G3 A B2 | "D"A3 G F2 |\
"C"EG c2 e2 | "G"d4 (3def |\
"Em"g3 f e2 | "Bm"B3 A B2 |\
"C".e2 "D"A4 | "Am"A3 G A2 |\
"G".B2 "A"E4 | "C"E4 "D"F2 |
"G"G3 A B2 | "D"A3 G FE |\
"C"EG c2 ed | "G"{B}d4 ef |\
"Em"g3 f e2 | "Bm"B3 A B2 |\
"C"e6 | "D"f6 ||\
"Am"a3 a a2 | "D"ab/a/ g2 a2 |
"G"ba- a2 g2 | "C"c3 B cd |\
"A"e<g- g2 "G/B"B2 | "Am"A2 G2 B2 |\
"C"E6 | "D"D6 |\
"G"G3 A B2 | "D"A3 G F2 |\
"C"EG c2 e2 | "Dsus4"d4 "D"(3def |
"Em"g3 f e2 | "Bm"B3 A B2 |\
"C".e2 "D"A4 | "Am"A3 G A2 |\
"G".B2 "A"E4 | "C"E4 "D"F2 |\
"Em"G3 A G2 | "C"E3 D GA |\
"G".B2 "A"E4 | "C/D"E3 D E2 |\
"C"G6- | "G"G4 |]
% - - - - - - - - - - - - - - - - - - - - - - - - -

